app/images/icon/phone.svg

<svg width="25" height="25" viewBox="0 0 25 25" fill="none" xmlns="http://www.w3.org/2000/svg">
<path d="M24.4395 19.7291L20.5787 15.8678C19.8097 15.1019 18.5362 15.1251 17.7404 15.9212L15.7953 17.8659C15.6724 17.7982 15.5452 17.7275 15.4114 17.6524C14.1831 16.9718 12.5019 16.039 10.7329 14.2686C8.95854 12.4945 8.02484 10.8107 7.34216 9.58161C7.27012 9.4514 7.2011 9.32585 7.13294 9.20662L8.4384 7.9031L9.08021 7.2605C9.87723 6.46326 9.89921 5.19012 9.13199 4.42197L5.27113 0.560251C4.50392 -0.206822 3.22985 -0.183551 2.43282 0.613688L1.3447 1.70806L1.37443 1.73758C1.00957 2.20314 0.704683 2.74009 0.477793 3.31913C0.268644 3.8703 0.138428 4.39626 0.0788869 4.9233C-0.430915 9.14967 1.50041 13.0123 6.74179 18.2537C13.987 25.4984 19.8256 24.9511 20.0775 24.9244C20.6261 24.8588 21.1518 24.7277 21.6861 24.5202C22.2601 24.296 22.7967 23.9915 23.262 23.6274L23.2858 23.6486L24.3881 22.5691C25.1835 21.772 25.2064 20.4985 24.4395 19.7291Z" fill="#FFC59E"/>
</svg>

<svg width="25" height="25" fill="none" xmlns="http://www.w3.org/2000/svg"><path d="M24.44 19.73l-3.861-3.862c-.77-.766-2.043-.743-2.839.053l-1.945 1.945-.384-.214c-1.228-.68-2.91-1.613-4.678-3.383-1.774-1.774-2.708-3.458-3.39-4.687-.073-.13-.142-.256-.21-.375l1.305-1.304.642-.642c.797-.798.82-2.07.052-2.839L5.272.56c-.768-.767-2.042-.744-2.84.054L1.346 1.708l.03.03a6.292 6.292 0 00-.897 1.581 6.557 6.557 0 00-.4 1.604C-.43 9.15 1.5 13.013 6.743 18.253c7.245 7.245 13.084 6.698 13.335 6.671a6.524 6.524 0 001.61-.404 6.27 6.27 0 001.575-.893l.024.022 1.102-1.08c.795-.797.818-2.07.051-2.84z" fill="#FFC59E"/></svg>
